X:1194
T:Barrel Rafferty (Master McDermott)
S:IrTrad; Philippe Varlet 6/97
M:4/4
L:1/8
Q:240
C:Sean Maguire & Liam Donnelly
D:as played by Bobby Casey and John Bowe on "Bringing It All Back Home"
R:reel
K:D
A,B, | DF~F2 DEFA | df{a}fe dB~B2  | AF~F2 dF~F2  | BFAF EGFE |
 DF~F2 DEFA | df{a}fe dB~B2  | AF~F2 dFAF | EGFE D2 :||
(3ABc | df{a}fe dfaf | ~g2  bg af{a}fe | dB{d}BA FAde | fdgf e2 de |
fa{b}af ~g2  bg | af{a}fe dB~B2  | AF~F2  dFAF | EGFE  D2 :||


